Flat-Remix-Dark/apps/scalable/wiznote.svg

<svg xmlns="http://www.w3.org/2000/svg" xmlns:xlink="http://www.w3.org/1999/xlink" width="384pt" height="384pt" version="1.1" viewBox="0 0 384 384"> <defs> <linearGradient id="linearGradient1037"> <stop style="stop-color:rgb(13.333%,31.764%,62.745%)" offset="0"/> <stop style="stop-color:rgb(29.019%,68.235%,90.196%)" offset="1"/> </linearGradient> <linearGradient id="linearGradient1039" x1="313.646" x2="261.516" y1="65.05" y2="216.885" gradientTransform="matrix(1.3352273,0,0,1.3352273,-64.363642,-64.363642)" gradientUnits="userSpaceOnUse" xlink:href="#linearGradient1037"/> <linearGradient id="linearGradient1047" x1="205.076" x2="140.93" y1="69.702" y2="228.838" gradientTransform="matrix(1.3352273,0,0,1.3352273,-64.363642,-64.363642)" gradientUnits="userSpaceOnUse" xlink:href="#linearGradient1037"/> </defs> <path style="fill-opacity:0.93689324;opacity:0.3" d="M 256.09091,55.295454 222.35359,169.5415 208.02273,119.38636 127.90909,135.40909 102.3494,206.15203 79.84091,103.36364 15.75,119.38636 l 48.06818,193.40912 64.09091,10.08265 28.43094,-72.21571 19.14239,77.59834 96.63122,15.44379 L 368.25,71.318181 Z"/> <path style="fill:url(#linearGradient1047)" d="M 127.90909,127.90909 63.818179,305.29612 127.90909,315.37814 208.02273,111.88636 Z"/> <path style="fill:url(#linearGradient1039)" d="M 256.09091,47.795451 175.48178,320.76077 272.11364,336.20455 368.25,63.818179 Z"/> <g transform="translate(-149.3309,6.1357835)" style="fill:;opacity:0.3"> <path style="fill:" d="m 169.58089,105.75057 48.06818,193.40977 64.09091,10.08202 L 233.6718,89.727845 Z"/> <path style="fill:" d="m 281.73998,121.7733 47.5727,192.8517 96.63186,15.44377 -64.09091,-224.3182 z"/> </g> <g transform="matrix(1.3352273,0,0,1.3352273,-64.363642,-64.363642)"> <path d="m 60,132 36,144.85156 48,7.55079 L 108,120 Z" style="fill:rgb(13.333%,31.764%,62.745%)"/> <path d="M 144,144 179.62891,288.4336 252,300 204,132 Z" style="fill:rgb(13.333%,31.764%,62.745%)"/> </g> </svg>

<svg width="512" height="512" version="1.1" viewBox="0 0 384 384" xmlns="http://www.w3.org/2000/svg" xmlns:xlink="http://www.w3.org/1999/xlink"><defs><linearGradient id="a"><stop stop-color="#21509f" offset="0"/><stop stop-color="#49ade5" offset="1"/></linearGradient><linearGradient id="c" x1="313.65" x2="261.52" y1="65.05" y2="216.88" gradientTransform="matrix(1.3352 0 0 1.3352 -64.364 -64.364)" gradientUnits="userSpaceOnUse" xlink:href="#a"/><linearGradient id="b" x1="205.08" x2="140.93" y1="69.702" y2="228.84" gradientTransform="matrix(1.3352 0 0 1.3352 -64.364 -64.364)" gradientUnits="userSpaceOnUse" xlink:href="#a"/></defs><path d="m256.09 55.295-33.737 114.25-14.331-50.155-80.114 16.023-25.56 70.743-22.508-102.79-64.091 16.023 48.068 193.41 64.091 10.083 28.431-72.216 19.142 77.598 96.631 15.444 96.136-272.39z" fill-opacity=".93689" opacity=".3"/><path d="m127.91 127.91-64.091 177.39 64.091 10.082 80.114-203.49z" fill="url(#b)"/><path d="m256.09 47.795-80.609 272.97 96.632 15.444 96.136-272.39z" fill="url(#c)"/><g transform="translate(-149.33 6.1358)" opacity=".3"><path d="m169.58 105.75 48.068 193.41 64.091 10.082-48.068-219.51z" opacity=".3"/><path d="m281.74 121.77 47.573 192.85 96.632 15.444-64.091-224.32z" opacity=".3"/></g><g transform="matrix(1.3352 0 0 1.3352 -64.364 -64.364)" fill="#21509f"><path d="m60 132 36 144.85 48 7.5508-36-164.4z"/><path d="m144 144 35.629 144.43 72.371 11.566-48-168z"/></g></svg>
